!!!COM: Augusta Holme\s
!!!CNT: Francais
!!!TXO: Francais
!!!OTL: "La Belle Madeleine"
!!!LYR: 
!!!OPR: Contes Divins 
!!!OPS: Op. 
!!!ONM: No. 
!!!ENC: Alyona Dzerbina
!!!YOR: Augusta Holme\s, Contes Divins
!!!YOR: Da Capo Press, New York, 1984
!!!ODT: 1893/
!!NB: Vocal melody and text encoded.
**kern	**text
*staff1	*staff1
=1-	=1-
*clefG2	*
*k[f#]	*
*M6/8	*
2.r	.
=2	=2
4r	.
8r	.
4r	.
{8e	{La
=3	=3
4.b	Bel-
8a	-le
8g	Ma-
8a	-de-
=4	=4
8b	-lei-
8a	-ne
8g	Sui-
4a	-vait
8b	Je/-
=5	=5
*M9/8	*
[4.g	-sus
8g]	|
8e	qu'on
8f#	me-
8g	-nait
8f#	a/
8d	la
=6	=6
*M6/8	*
[2.B	Croix;
=7	=7
4.B_	|
8B]}	|}
8r	.
{8B	{Pleu-
=8	=8
[4.f#	-rante
8f#]	|
8g	et
8a	pieds
=9	=9
4g	nus,
8e	en
8a	ro-
8b	-be
8cc	de
=10	=10
8b	laine,
8a	El-
8g	-le
4a	tra-
8dd	-ver-
=11	=11
*M9/8	*
4b	-sait
8g	la
[4.a	plaine
8a]	|
8g	Et
8a	les
=12	=12
*M6/8	*
[2.b	bois...
=13	=13
4.b_	|
8b]}	|}
8r	.
{8e	{La
=14	=14
4.b	Bel-
8a	-le
8g	Ma-
8a	-de-
=15	=15
8b	-lei-
8a	-ne
8g	Sui-
4a	-vait
(8b	Je/-
=16	=16
[4.e)	-sus
8e]	|
8f#	qu'on
8g	me-
=17	=17
4.c	-nait
4d	a/
8f#	la
=18	=18
[2.e	Croix.
=19	=19
4.e_	|
8e]}	|}
8r	.
{8e	{Au-
=20	=20
4.b	-pre\s
8a	d'u-
8g#	-ne
8a	fon-
=21	=21
8b	-taine
8g#	On
8e	voy-
4f#	-ait
8g#	fleu-
=22	=22
4.e	-rir
8f#	un
8g#	ro-
8e	-sier
=23	=23
[4.b	blanc;
8b]}	|}
8r	.
{8b	{La
=24	=24
4.dd	Bel-
8cc	-le
8b	Ma-
8a	-de-
=25	=25
8b	-lei-
8a	-ne
8g	Cueil-
4a	-lit
8b	ces
=26	=26
4.g#	fleurs
8f#	tout
8g#	en
8e	trem-
=27	=27
[4.f#	-blant...
8f#]}	|}
8r	.
{8b	{"C'est
=28	=28
4.ee	pour
4.dd	Je/-
=29	=29
8cc	-sus
8b	ce
8a	bou-
8b	-quet
8g	que
8a	je
=30	=30
8f#	cueille
8g	En
8e	ce
(4f#	jour
8d)	cru-
=31	=31
[4.B	-el,
8B]}	|}
8r	.
{8B	{Pour
=32	=32
4.f#	qu'il
4.a	en
=33	=33
8g	garde
8f#	u-
8e	-ne
8a	pe-
8b	-ti-
8cc	-te
=34	=34
*M9/8	*
8b	feuil-
8g#	-le,
8e	La\-
4.g#	-bas,
4.f#	au
=35	=35
*M6/8	*
[2.e	Ciel!"
=36	=36
4.e_	|
8e]}	|}
8r	.
8r	.
=37	=37
2.r	.
=38	=38
4r	.
8r	.
4r	.
{8e	{La
=39	=39
4.b	Bel-
8a	-le
8g	Ma-
8a	-de-
=40	=40
8b	-lei-
8a	-ne
8g	Trou-
4a	-va
8b	Je/-
=41	=41
*M9/8	*
[4.g	-sus
8g]	|
8e	qui
8f#	mou-
8g	-rait
8f#	sur
8d	la
=42	=42
*M6/8	*
[2.B	Croix;
=43	=43
4.B	|
8B]}	|}
8r	.
{8B	{De
=44	=44
[4.f#	crainte
8f#]	|
8g	et
8a	d'a-
=45	=45
8g	-mour,
8r	.
8e	de
8a	lar-
16b	-mes,
16r	.
8cc	de
=46	=46
8b	haine
8a	El-
8g	-le
4a	se
8dd	vit
=47	=47
*M9/8	*
4b	l'a^-
8g	-me
[4.a	pleine
8a]	|
8g	A
8a	la
=48	=48
*M6/8	*
[2.b	fois!
=49	=49
4.b_	|
8b]}	|}
8r	.
{8e	{La
=50	=50
4.b	Bel-
8a	-le
8g	Ma-
8a	-de-
=51	=51
8b	-lei-
8a	-ne
8g	trou-
4a	-va
(8b	Je/-
=52	=52
[4.e)	-sus
8e]	|
8f#	qui
8g	mou-
=53	=53
4.c	-rait
4d	sur
8f#	la
=54	=54
[2.e	Croix.
=55	=55
4.e_	|
8e]}	|}
8r	.
{8e	{Des
=56	=56
4.b	fleurs
8a	de
8g#	la
8a	fon-
=57	=57
8b	-taine
8g#	Elle
8e	a-
4f#	-vait
8g#	rem-
=58	=58
4.e	-pli
8f#	son
8g#	cor-
8e	-set
=59	=59
[4.b	blanc;
8b]}	|}
8r	.
{8b	{La
=60	=60
4.dd	Bel-
8cc	-le
8b	Ma-
8a	-de-
=61	=61
8b	-lei-
8a	-ne
8g	Les
4a	re/-
8b	-pan-
=62	=62
4.g#	-dit
8f#	tout
8g#	en
8e	trem-
=63	=63
[4.f#	-blant...
8f#]}	|}
8r	.
{8b	{Mais
=64	=64
4.ee	de
4.dd	son
=65	=65
8cc	coeur,
8b	qui,
8a	na-
8b	-vre/
8g	de
8a	ces
=66	=66
8f#	cho-
8g	-ses,
8e	Saig-
8f#	-nait,
8f#	ge/-
8d	-mis-
=67	=67
[4.B	-sant,
8B]}	|}
8r	.
{8B	{Les
=68	=68
4.f#	ro-
4.a	-ses
=69	=69
8g	blan-
8f#	-ches
8e	tom-
8a	-be\-
8b	-rent
8cc	e/-
=70	=70
*M9/8	*
8b	-clo-
16g#	-ses,
16r	.
8e	Cou-
4.g#	-leur
4.f#	de
=71	=71
*M6/8	*
[2.e	sang!
=72	=72
4.e_	|
8e]}	|}
8r	.
8r	.
==	==
*-	*-
